static/guestbook.svg

<svg width="22" height="18" viewBox="0 0 22 18" fill="none" xmlns="http://www.w3.org/2000/svg">
<path d="M19.2503 0H2.74966C1.23093 0 0 1.23782 0 2.76505V11.981C0 13.5082 1.23093 14.746 2.74966 14.746H6.89705C7.19218 14.746 7.47448 14.8649 7.68162 15.0769L10.2159 17.6696C10.6467 18.1101 11.3533 18.1101 11.7841 17.6696L14.3184 15.0769C14.5255 14.8658 14.8078 14.746 15.1029 14.746H19.2503C20.7691 14.746 22 13.5082 22 11.981V2.76505C22 1.23782 20.7691 0 19.2503 0ZM10.2865 9.57536H4.4352C4.04658 9.57536 3.70745 9.28042 3.68271 8.89055C3.65521 8.46289 3.99158 8.10804 4.41045 8.10804H10.2608C10.6494 8.10804 10.9885 8.40298 11.0133 8.79285C11.0408 9.22051 10.7044 9.57536 10.2856 9.57536H10.2865ZM17.6115 5.88586H4.43611C4.0475 5.88586 3.70837 5.59093 3.68362 5.20105C3.65613 4.77339 3.9925 4.41855 4.41137 4.41855H17.5868C17.9754 4.41855 18.3145 4.71348 18.3393 5.10336C18.3668 5.53102 18.0304 5.88586 17.6115 5.88586Z" fill="#BBC7D3"/>
</svg>

<svg xmlns="http://www.w3.org/2000/svg" width="22" height="18" fill="none"><path fill="#BBC7D3" d="M19.25 0H2.75A2.757 2.757 0 0 0 0 2.765v9.216a2.757 2.757 0 0 0 2.75 2.765h4.147c.295 0 .577.119.785.33l2.534 2.594c.43.44 1.137.44 1.568 0l2.534-2.593a1.1 1.1 0 0 1 .785-.331h4.147A2.757 2.757 0 0 0 22 11.981V2.765A2.757 2.757 0 0 0 19.25 0Zm-8.963 9.575H4.434a.747.747 0 0 1-.752-.684.732.732 0 0 1 .727-.783h5.85c.39 0 .729.295.753.685a.732.732 0 0 1-.727.782Zm7.324-3.69H4.436a.747.747 0 0 1-.752-.684.732.732 0 0 1 .727-.782h13.176c.388 0 .727.294.752.684a.732.732 0 0 1-.727.783Z"/></svg>
